X: 24659
T: MacGregor Of Rora
R: waltz
M: 3/4
K: Amixolydian
A>B|e>e e>f d>f|f<e A2 A>B|e2 ef ge/e/|d2 G2 dB|
d2 e>d BA|A<G B/B/d e>d|B2 A<G A2|B2 A2 A>B|
e>e e>f d>f|f<e A2 A>B|e2 ef ge/e/|d2 G2 dB|
d2 ef/g/ BA|A<G B/B/d e>d|B2 A<G A2|B2 A2 A>B|
e2 a2 ga|e2 A2 AB|e2 a2 g/f/e/d/|g2 G2 dB|
d2 e>d BA|A<G B/B/d e>d|B2 A<G A2|B2 A2 A>B|
e2 a2 ga|e2 A2 A>B|e2 a2 g/f/e/d/|g2 G2 ed/B/|
d2 e/f/g BA|A<G B/B/d e>d|B2 A<G A2|B2 A2||

